X:528
T: Der Wildschtz (231), S. 497
N: T0416
O: Luxemburg
S: Singendes Volk, Esch-Alzette, 1937 posth.]
N: Esch-Alzette, hhh Dominik Mller, 7.6.1915
R: Jgerlied]
M: 6/8
L: 1/8
K: G
D | DGGGGG | GBBBA
G | FAAA2A | ABAAG
B | G2BB2B | B2dd2
c | c2cAed | dcAG2
B | B3G2B | BdddcB | A3A2
e | dcAG2
B | B3G2B | BdddcB | A3A2
e | dcAG2

